Newaita-dark/actions/24/project-development-close.svg

<?xml version="1.0" encoding="UTF-8"?>
<svg xmlns="http://www.w3.org/2000/svg" xmlns:xlink="http://www.w3.org/1999/xlink" width="24pt" height="24pt" viewBox="0 0 24 24" version="1.1">
<defs>
<filter id="alpha" filterUnits="objectBoundingBox" x="0%" y="0%" width="100%" height="100%">
  <feColorMatrix type="matrix" in="SourceGraphic" values="0 0 0 0 1 0 0 0 0 1 0 0 0 0 1 0 0 0 1 0"/>
</filter>
<mask id="mask0">
  <g filter="url(#alpha)">
<rect x="0" y="0" width="24" height="24" style="fill:rgb(0%,0%,0%);fill-opacity:0.988235;stroke:none;"/>
  </g>
</mask>
<clipPath id="clip1">
  <rect x="0" y="0" width="24" height="24"/>
</clipPath>
<g id="surface5" clip-path="url(#clip1)">
<path style=" stroke:none;fill-rule:nonzero;fill:rgb(74.117649%,74.117649%,74.117649%);fill-opacity:1;" d="M 0.992188 6.140625 L 0.992188 21.027344 C 0.992188 22.125 1.878906 23.011719 2.976562 23.011719 L 20.839844 23.011719 C 21.9375 23.011719 22.824219 22.125 22.824219 21.027344 L 22.824219 6.140625 Z M 2.480469 7.628906 L 21.335938 7.628906 L 21.335938 20.53125 C 21.335938 21.078125 20.890625 21.523438 20.339844 21.523438 L 3.472656 21.523438 C 2.921875 21.523438 2.480469 21.078125 2.480469 20.53125 Z M 2.480469 7.628906 "/>
</g>
<mask id="mask1">
  <g filter="url(#alpha)">
<rect x="0" y="0" width="24" height="24" style="fill:rgb(0%,0%,0%);fill-opacity:0.988235;stroke:none;"/>
  </g>
</mask>
<clipPath id="clip2">
  <rect x="0" y="0" width="24" height="24"/>
</clipPath>
<g id="surface8" clip-path="url(#clip2)">
<path style=" stroke:none;fill-rule:nonzero;fill:rgb(74.117649%,74.117649%,74.117649%);fill-opacity:1;" d="M 2.976562 1.179688 C 1.878906 1.179688 0.992188 2.066406 0.992188 3.164062 L 0.992188 6.140625 L 2.480469 6.140625 L 2.480469 3.660156 C 2.480469 3.109375 2.921875 2.667969 3.472656 2.667969 L 20.339844 2.667969 C 20.890625 2.667969 21.335938 3.109375 21.335938 3.660156 L 21.335938 6.140625 L 22.824219 6.140625 L 22.824219 3.164062 C 22.824219 2.066406 21.9375 1.179688 20.839844 1.179688 Z M 2.976562 1.179688 "/>
</g>
</defs>
<g id="surface1">
<use xlink:href="#surface5" mask="url(#mask0)"/>
<use xlink:href="#surface8" mask="url(#mask1)"/>
<path style=" stroke:none;fill-rule:nonzero;fill:rgb(93.725491%,32.549021%,31.37255%);fill-opacity:1;" d="M 10.152344 11.769531 L 14.714844 16.328125 C 15.003906 16.621094 15.023438 17.070312 14.757812 17.335938 L 14.667969 17.425781 C 14.402344 17.691406 13.953125 17.671875 13.660156 17.382812 L 9.101562 12.820312 C 8.808594 12.53125 8.789062 12.078125 9.054688 11.8125 L 9.144531 11.722656 C 9.410156 11.457031 9.863281 11.476562 10.152344 11.769531 Z M 10.152344 11.769531 "/>
<path style=" stroke:none;fill-rule:nonzero;fill:rgb(93.725491%,32.549021%,31.37255%);fill-opacity:1;" d="M 9.101562 16.328125 L 13.660156 11.769531 C 13.953125 11.476562 14.402344 11.457031 14.667969 11.722656 L 14.757812 11.8125 C 15.023438 12.078125 15.003906 12.53125 14.714844 12.820312 L 10.152344 17.382812 C 9.863281 17.671875 9.410156 17.691406 9.144531 17.425781 L 9.054688 17.335938 C 8.789062 17.070312 8.808594 16.621094 9.101562 16.328125 Z M 9.101562 16.328125 "/>
</g>
</svg>

<svg xmlns="http://www.w3.org/2000/svg" xmlns:xlink="http://www.w3.org/1999/xlink" width="32" height="32" viewBox="0 0 24 24"><defs><filter id="a" filterUnits="objectBoundingBox" x="0%" y="0%" width="100%" height="100%"><feColorMatrix in="SourceGraphic" values="0 0 0 0 1 0 0 0 0 1 0 0 0 0 1 0 0 0 1 0"/></filter><mask id="e"><path fill-opacity=".988" d="M0 0h24v24H0z" filter="url(#a)"/></mask><clipPath id="b"><path d="M0 0h24v24H0z"/></clipPath><g id="d" clip-path="url(#b)"><path d="M.992 6.14v14.887c0 1.098.887 1.985 1.985 1.985H20.84a1.982 1.982 0 0 0 1.984-1.985V6.141zM2.48 7.63h18.856V20.53a.994.994 0 0 1-.996.992H3.473a.991.991 0 0 1-.993-.992zm0 0" fill="#bdbdbd"/></g><mask id="g"><path fill-opacity=".988" d="M0 0h24v24H0z" filter="url(#a)"/></mask><clipPath id="c"><path d="M0 0h24v24H0z"/></clipPath><g id="f" clip-path="url(#c)"><path d="M2.977 1.18A1.982 1.982 0 0 0 .992 3.164v2.977H2.48V3.66c0-.552.442-.993.993-.993H20.34c.55 0 .996.441.996.992v2.48h1.488V3.165A1.982 1.982 0 0 0 20.84 1.18zm0 0" fill="#bdbdbd"/></g></defs><use xlink:href="#d" mask="url(#e)"/><use xlink:href="#f" mask="url(#g)"/><path d="M10.152 11.77l4.563 4.558c.289.293.308.742.043 1.008l-.09.09c-.266.265-.715.246-1.008-.043L9.102 12.82c-.293-.289-.313-.742-.047-1.008l.09-.09c.265-.265.718-.245 1.007.048zm0 0" fill="#ef5350"/><path d="M9.102 16.328l4.558-4.558c.293-.293.742-.313 1.008-.047l.09.09c.265.265.246.718-.043 1.007l-4.563 4.563c-.289.289-.742.308-1.007.043l-.09-.09c-.266-.266-.246-.715.047-1.008zm0 0" fill="#ef5350"/></svg>
